Origami/48x48/apps/gargoyle-house.svg

<svg width="48" height="48" version="1" xmlns="http://www.w3.org/2000/svg">
 <path d="m42 43.2v-22.109177l-2.932829-2.81684c-0.719205-0.690762-5.171304-4.457216-6.151939-4.638221l-8.64329-6.1292359-9.754818 6.4130579c-0.833258 0.547804-5.0777292 3.92387-5.77351 4.638221l-2.743614 2.81684v21.825355c0 0.9972 0.8028 1.8 1.8000001 1.8h32.4c0.9972 0 1.8-0.8028 1.8-1.8z" style="opacity:.2"/>
 <path d="m42 42.2v-22.109177l-2.932829-2.81684c-0.719205-0.690762-5.171304-4.457216-6.151939-4.638221l-8.64329-6.1292359-9.754818 6.4130579c-0.833258 0.547804-5.0777292 3.92387-5.77351 4.638221l-2.743614 2.81684v21.825355c0 0.9972 0.8028 1.8 1.8000001 1.8h32.4c0.9972 0 1.8-0.8028 1.8-1.8z" style="fill:#cccccc"/>
 <rect x="6" y="20" width="36" height="2" style="opacity:.15"/>
 <rect x="9" y="6" width="6" height="10" rx="1.069" ry="1.093" style="fill:#4f4f4f"/>
 <rect x="10" y="25" width="10" height="16" rx="1.5" ry="1.5" style="fill:#956a42"/>
 <path d="m28.5 25c-1.367703 0-2.5 1.132297-2.5 2.5v7c0 1.367703 1.132297 2.5 2.5 2.5h7c1.367703 0 2.5-1.132297 2.5-2.5v-7c0-1.367703-1.132297-2.5-2.5-2.5h-7z" style="fill:#956a42"/>
 <path d="m28.5 28c-0.294297 0-0.5 0.205703-0.5 0.5v7c0 0.294297 0.205703 0.5 0.5 0.5h7c0.294297 0 0.5-0.205703 0.5-0.5v-7c0-0.294297-0.205703-0.5-0.5-0.5h-7z" style="opacity:.2"/>
 <path d="m28.5 27c-0.294297 0-0.5 0.205703-0.5 0.5v7c0 0.294297 0.205703 0.5 0.5 0.5h7c0.294297 0 0.5-0.205703 0.5-0.5v-7c0-0.294297-0.205703-0.5-0.5-0.5h-7z" style="fill:#c2eeff"/>
 <circle cx="18" cy="34" r="1" style="opacity:.2"/>
 <circle cx="18" cy="33" r="1" style="fill:#ffffff"/>
 <path d="m 10,17.064414 c -0.5841362,0.485492 -1.0643351,0.897114 -1.2558594,1.09375 L 6,20.97457 6,20 l 4,0 z" style="opacity:.05"/>
 <path d="m14 13.902304c-0.92509 0.681482-2.699504 2.08123-4 3.16211v2.935586h4z" style="opacity:.15"/>
 <path d="m18 11.230429-3.482422 2.289063c-0.093238 0.061297-0.348669 0.258383-0.517578 0.382812v6.097696h4z" style="opacity:.05"/>
 <path d="m22 8.5995703-4 2.6308587v8.769571h4z" style="opacity:.15"/>
 <path d="M 24.271484,7.1054297 22,8.5995703 22,20 26,20 26,8.3319922 Z" style="opacity:.05"/>
 <path d="m26 8.3319922v11.668008h4v-8.832071z" style="opacity:.15"/>
 <path d="m30 11.167929v8.832071h4v-6.18168c-0.471115-0.312836-0.869542-0.54245-1.083984-0.582031z" style="opacity:.05"/>
 <path d="m34 13.81832v6.18168h4v-3.064492c-1.134286-0.96595-2.8265-2.337945-4-3.117188z" style="opacity:.15"/>
 <path d="m38 16.935508v3.064492h4v0.691367l-2.933594-2.818359c-0.170178-0.163448-0.57367-0.51789-1.066406-0.9375z" style="opacity:.05"/>
 <path d="m24 6-18 14" style="fill:none;stroke-linecap:round;stroke-linejoin:round;stroke-width:4;stroke:#5d5d5d"/>
 <path d="M 24.023372,6 42,20" style="fill:none;stroke-linecap:round;stroke-linejoin:round;stroke-width:4;stroke:#5d5d5d"/>
 <path d="m23.953125 3.9824219a2.0002 2.0002 0 0 0 -0.140625 0.0117187 2.0002 2.0002 0 0 0 -1.203125 0.5546875l-17.837891 13.873047a2.0002 2.0002 0 0 0 -0.7324219 2.099609 2.0002 2.0002 0 0 1 0.7324219 -1.099609l17.837891-13.873047a2.0002 2.0002 0 0 1 1.203125 -0.5546875 2.0002 2.0002 0 0 1 0.140625 -0.0117187 2.0002 2.0002 0 0 1 0.039063 0.0019531 2.0002 2.0002 0 0 1 0.019531 -0.0019531 2.0002 2.0002 0 0 1 0.08789 0.0039062 2.0002 2.0002 0 0 1 0.066407 0.0039063 2.0002 2.0002 0 0 1 1.25 0.5605468l17.8125 13.871094a2.0002 2.0002 0 0 1 0.734375 1.097656 2.0002 2.0002 0 0 0 -0.734375 -2.097656l-17.8125-13.871094a2.0002 2.0002 0 0 0 -1.25 -0.5605468 2.0002 2.0002 0 0 0 -0.066407 -0.0039063 2.0002 2.0002 0 0 0 -0.08789 -0.0039062 2.0002 2.0002 0 0 0 -0.019531 0.0019531 2.0002 2.0002 0 0 0 -0.039063 -0.0019531z" style="fill-rule:evenodd;fill:#ffffff;opacity:.1"/>
 <path d="M 10.068359 6 C 9.4762018 6 9 6.4879797 9 7.09375 L 9 8.09375 C 9 7.4879797 9.4762018 7 10.068359 7 L 13.931641 7 C 14.523798 7 15 7.4879797 15 8.09375 L 15 7.09375 C 15 6.4879797 14.523798 6 13.931641 6 L 10.068359 6 z" style="fill:#ffffff;opacity:.1"/>
</svg>

<svg xmlns="http://www.w3.org/2000/svg" width="48" height="48" version="1">
 <path style="opacity:0.2" d="m 42,43.2 0,-22.109177 -2.932829,-2.81684 c -0.719205,-0.690762 -5.171304,-4.457216 -6.151939,-4.638221 l -8.64329,-6.1292359 -9.754818,6.4130579 c -0.833258,0.547804 -5.0777292,3.92387 -5.77351,4.638221 L 6,21.374645 6,43.2 C 6,44.1972 6.8028,45 7.8000001,45 L 40.2,45 c 0.9972,0 1.8,-0.8028 1.8,-1.8 z"/>
 <path style="fill:#cccccc" d="m 42,42.2 0,-22.109177 -2.932829,-2.81684 c -0.719205,-0.690762 -5.171304,-4.457216 -6.151939,-4.638221 l -8.64329,-6.1292359 -9.754818,6.4130579 c -0.833258,0.547804 -5.0777292,3.92387 -5.77351,4.638221 L 6,20.374645 6,42.2 C 6,43.1972 6.8028,44 7.8000001,44 L 40.2,44 c 0.9972,0 1.8,-0.8028 1.8,-1.8 z"/>
 <rect style="opacity:0.15" width="36" height="2" x="6" y="20"/>
 <rect style="fill:#4f4f4f" width="6" height="10" x="9" y="6" rx="1.069" ry="1.093"/>
 <rect style="fill:#956a42" width="10" height="16" x="10" y="25" rx="1.5" ry="1.5"/>
 <path style="fill:#956a42" d="M 28.5 25 C 27.132297 25 26 26.132297 26 27.5 L 26 34.5 C 26 35.867703 27.132297 37 28.5 37 L 35.5 37 C 36.867703 37 38 35.867703 38 34.5 L 38 27.5 C 38 26.132297 36.867703 25 35.5 25 L 28.5 25 z"/>
 <path style="opacity:0.2" d="M 28.5,28 C 28.205703,28 28,28.205703 28,28.5 l 0,7 c 0,0.294297 0.205703,0.5 0.5,0.5 l 7,0 c 0.294297,0 0.5,-0.205703 0.5,-0.5 l 0,-7 C 36,28.205703 35.794297,28 35.5,28 l -7,0 z"/>
 <path style="fill:#c2eeff" d="M 28.5 27 C 28.205703 27 28 27.205703 28 27.5 L 28 34.5 C 28 34.794297 28.205703 35 28.5 35 L 35.5 35 C 35.794297 35 36 34.794297 36 34.5 L 36 27.5 C 36 27.205703 35.794297 27 35.5 27 L 28.5 27 z"/>
 <circle style="opacity:0.2" cx="18" cy="34" r="1"/>
 <circle style="fill:#ffffff" cx="18" cy="33" r="1"/>
 <path style="opacity:0.05" d="m 10,17.064414 c -0.5841362,0.485492 -1.0643351,0.897114 -1.2558594,1.09375 L 6,20.97457 6,20 l 4,0 z"/>
 <path style="opacity:0.15" d="m 14,13.902304 c -0.92509,0.681482 -2.699504,2.08123 -4,3.16211 L 10,20 l 4,0 z"/>
 <path style="opacity:0.05" d="m 18,11.230429 -3.482422,2.289063 C 14.42434,13.580789 14.168909,13.777875 14,13.902304 L 14,20 l 4,0 z"/>
 <path style="opacity:0.15" d="M 22,8.5995703 18,11.230429 18,20 l 4,0 z"/>
 <path style="opacity:0.05" d="M 24.271484,7.1054297 22,8.5995703 22,20 26,20 26,8.3319922 Z"/>
 <path style="opacity:0.15" d="M 26,8.3319922 26,20 l 4,0 0,-8.832071 z"/>
 <path style="opacity:0.05" d="M 30,11.167929 30,20 l 4,0 0,-6.18168 c -0.471115,-0.312836 -0.869542,-0.54245 -1.083984,-0.582031 z"/>
 <path style="opacity:0.15" d="M 34,13.81832 34,20 l 4,0 0,-3.064492 c -1.134286,-0.96595 -2.8265,-2.337945 -4,-3.117188 z"/>
 <path style="opacity:0.05" d="M 38,16.935508 38,20 l 4,0 0,0.691367 -2.933594,-2.818359 C 38.896228,17.70956 38.492736,17.355118 38,16.935508 Z"/>
 <path style="fill:none;stroke:#5d5d5d;stroke-width:4;stroke-linecap:round;stroke-linejoin:round" d="M 24,6 6,20"/>
 <path style="fill:none;stroke:#5d5d5d;stroke-width:4;stroke-linecap:round;stroke-linejoin:round" d="M 24.023372,6 42,20"/>
 <path style="opacity:0.1;fill:#ffffff;fill-rule:evenodd" d="M 23.953125 3.9824219 A 2.0002 2.0002 0 0 0 23.8125 3.9941406 A 2.0002 2.0002 0 0 0 22.609375 4.5488281 L 4.7714844 18.421875 A 2.0002 2.0002 0 0 0 4.0390625 20.521484 A 2.0002 2.0002 0 0 1 4.7714844 19.421875 L 22.609375 5.5488281 A 2.0002 2.0002 0 0 1 23.8125 4.9941406 A 2.0002 2.0002 0 0 1 23.953125 4.9824219 A 2.0002 2.0002 0 0 1 23.992188 4.984375 A 2.0002 2.0002 0 0 1 24.011719 4.9824219 A 2.0002 2.0002 0 0 1 24.099609 4.9863281 A 2.0002 2.0002 0 0 1 24.166016 4.9902344 A 2.0002 2.0002 0 0 1 25.416016 5.5507812 L 43.228516 19.421875 A 2.0002 2.0002 0 0 1 43.962891 20.519531 A 2.0002 2.0002 0 0 0 43.228516 18.421875 L 25.416016 4.5507812 A 2.0002 2.0002 0 0 0 24.166016 3.9902344 A 2.0002 2.0002 0 0 0 24.099609 3.9863281 A 2.0002 2.0002 0 0 0 24.011719 3.9824219 A 2.0002 2.0002 0 0 0 23.992188 3.984375 A 2.0002 2.0002 0 0 0 23.953125 3.9824219 z"/>
 <path style="opacity:0.1;fill:#ffffff" d="M 10.068359 6 C 9.4762018 6 9 6.4879797 9 7.09375 L 9 8.09375 C 9 7.4879797 9.4762018 7 10.068359 7 L 13.931641 7 C 14.523798 7 15 7.4879797 15 8.09375 L 15 7.09375 C 15 6.4879797 14.523798 6 13.931641 6 L 10.068359 6 z"/>
</svg>
